static/src/inline-svgs/commercial/paid-content.svg

<svg width="856" height="631" viewBox="0 0 856 631" fill="none" xmlns="http://www.w3.org/2000/svg">
<rect y="145" width="856" height="486" fill="white"/>
<rect x="586" y="166" width="120" height="183" fill="#D8D8D8"/>
<rect x="716" y="166" width="120" height="183" fill="#D8D8D8"/>
<rect x="326" y="359" width="120" height="208" fill="#D8D8D8"/>
<rect x="456" y="359" width="120" height="208" fill="#D8D8D8"/>
<rect x="134" y="166" width="442" height="183" fill="#D8D8D8"/>
<rect x="134" y="359" width="182" height="208" fill="#D8D8D8"/>
<rect x="586" y="359" width="250" height="208" fill="#F6A623"/>
<rect x="20" y="166" width="104" height="15" fill="#D8D8D8"/>
<rect width="856" height="145" fill="#052962"/>
<path d="M604.008 70.5011L608.848 67.9845V29.9985H605.188L596.247 41.842H595.237L595.807 28.641H634.572L635.132 41.842H634.071L625.31 29.9985H621.56V67.9045L626.43 70.471V71.7589H604.008V70.5011ZM639.022 68.8227V26.7227L635.261 25.225V24.4366L648.854 22H650.284V41.9211L650.663 41.6012C653.674 38.9764 657.995 37.2877 662.315 37.2877C668.266 37.2877 670.896 40.6435 670.896 46.894V68.8237L674.077 70.55V71.8295H656.305V70.5604L659.494 68.8227V46.8141C659.494 43.3802 657.995 42.001 655.175 42.001C653.294 42.001 651.674 42.5909 650.473 43.5496V68.8726L653.604 70.6008V71.8191H635.822V70.6102L639.022 68.8227ZM684.428 55.8917C684.797 62.8516 687.918 68.2348 695.319 68.2348C698.899 68.2348 701.439 66.5762 703.83 65.3183V66.6872C701.98 69.2141 697.29 72.759 690.758 72.759C679.287 72.759 673.426 66.3974 673.426 55.3733C673.426 44.5985 679.837 37.8889 690.198 37.8889C699.94 37.8889 705 42.7518 705 55.553V55.8823H684.428V55.8917ZM684.237 54.2942L694.329 53.6752C694.329 45.0576 692.849 39.3358 689.888 39.3358C686.748 39.3358 684.237 45.9758 684.237 54.2942ZM540 88.6149C540 70.2904 552.151 63.7698 565.684 63.7698C571.424 63.7698 576.845 64.6889 579.874 65.9468L580.135 78.7386H578.845L570.903 66.3673C569.544 65.7878 568.254 65.5582 565.873 65.5582C558.683 65.5582 555.002 73.8559 555.112 87.4662C555.252 103.743 558.082 111.133 564.683 111.133C566.403 111.133 567.723 110.873 568.644 110.474V93.0272L564.283 90.5313V89.0731H585.346V90.631L581.055 93.0281V110.233C577.495 111.622 571.484 112.94 565.143 112.94C549.761 112.94 540 105.82 540 88.6149ZM584.605 80.067V79.0086L598.767 76.5127L600.317 76.6425V104.503C600.317 107.858 601.937 108.896 604.648 108.896C606.398 108.896 607.978 108.238 609.238 106.73V81.7444L605.358 80.066V78.9681L619.519 76.4713L620.939 76.6011V108.536L624.76 110.133V111.152L610.788 112.87L609.368 112.74V108.546H608.978C606.387 110.933 602.768 113 598.367 113C591.576 113 588.465 108.996 588.465 102.924V81.7463L584.605 80.067ZM674.127 76.4525L675.287 76.5823V86.8971H675.606C677.117 79.3379 680.457 76.5127 684.528 76.5127C685.178 76.5127 685.888 76.572 686.278 76.7714V87.327C685.628 87.137 684.468 87.0673 683.368 87.0673C680.138 87.0673 677.757 87.6459 675.667 88.6046V108.996L678.887 110.784V112.101H660.525V110.793L663.836 109.005V81.1752L659.955 80.0181V79.0679L674.127 76.4525Z" fill="white"/>
<path d="M709.809 77.5951V66.8087L705.927 65.4634V64.602L720.224 62L721.584 62.1874V108.508L725.536 109.924V111.121L711.429 113L710.329 112.872V109.043H710.009C707.938 111.091 705.087 112.941 700.624 112.941C692.921 112.941 687.298 107.123 687.298 95.2188C687.298 82.6704 693.832 76.5062 703.736 76.5062C706.568 76.5062 708.709 77.0208 709.809 77.5951ZM709.779 107.251V79.565C708.868 78.9907 708.218 78.2784 705.867 78.3577C702.045 78.4863 699.685 84.2058 699.685 94.3778C699.685 103.532 701.385 108.647 706.477 108.479C707.908 108.43 709.068 107.925 709.779 107.253V107.251ZM741.243 76.7038L742.474 76.8325V108.972L745.705 110.743V112.048H727.337V110.752L730.639 108.981V81.9078L726.687 80.3742V79.3049L741.243 76.7038ZM742.544 68.0243C742.544 71.4197 739.633 73.9723 736.271 73.9723C732.78 73.9723 730.058 71.4094 730.058 68.0243C730.058 64.6309 732.78 62.0084 736.271 62.0084C739.633 62.0084 742.544 64.6309 742.544 68.0253V68.0243ZM785.774 108.983V81.6113L781.891 80.266V78.9403L795.998 76.3374L797.419 76.4661V80.5625H797.809C800.85 77.871 805.383 76.1491 809.845 76.1491C815.987 76.1491 818.709 79.0298 818.709 85.4318V108.923L822 110.743V112.048H803.632V110.752L806.933 108.981V86.075C806.933 82.5529 805.383 81.148 802.471 81.148C800.591 81.148 799.049 81.6234 797.619 82.6713V108.974L800.85 110.745V112.05H782.472V110.754L785.774 108.983ZM765.394 91.7843V87.1928C765.394 80.2753 763.874 78.0099 759.552 78.0099C759.041 78.0099 758.601 78.0687 758.091 78.1376L750.398 88.4486H749.317V78.9608C752.619 77.9512 756.751 76.7635 762.223 76.7635C771.627 76.7635 777.099 79.3459 777.099 87.1341V109.518L780.471 110.398V111.279C779.141 112.099 776.47 112.852 773.539 112.852C768.896 112.852 766.675 111.348 765.655 108.824H765.334C763.363 111.466 760.572 112.971 756.18 112.971C750.588 112.971 746.776 109.517 746.776 103.54C746.776 97.7517 750.398 94.6146 757.771 93.2293L765.394 91.7843ZM765.394 107.251V93.4157L763.044 93.605C759.351 93.922 758.022 96.2471 758.022 101.403C758.022 106.993 759.862 108.448 762.473 108.448C763.934 108.438 764.765 108.002 765.394 107.251ZM643.629 91.7843V87.1928C643.629 80.2753 642.108 78.0099 637.777 78.0099C637.266 78.0099 636.825 78.0687 636.315 78.1376L628.622 88.4486H627.541V78.9608C630.843 77.9512 634.975 76.7635 640.447 76.7635C649.852 76.7635 655.324 79.3459 655.324 87.1341V109.518L658.695 110.398V111.279C657.365 112.099 654.694 112.852 651.763 112.852C647.12 112.852 644.899 111.348 643.879 108.824H643.559C641.588 111.466 638.787 112.971 634.405 112.971C628.813 112.971 625 109.517 625 103.54C625 97.7517 628.622 94.6146 635.996 93.2293L643.629 91.7843ZM643.629 107.251V93.4157L641.278 93.605C637.586 93.922 636.256 96.2471 636.256 101.403C636.256 106.993 638.096 108.448 640.708 108.448C642.158 108.438 642.989 108.002 643.629 107.251Z" fill="white"/>
</svg>

<svg width="856" height="631" viewBox="0 0 856 631" fill="none"><path fill="#fff" d="M0 145h856v486H0z"/><path fill="#D8D8D8" d="M586 166h120v183H586zM716 166h120v183H716zM326 359h120v208H326zM456 359h120v208H456zM134 166h442v183H134zM134 359h182v208H134z"/><path fill="#F6A623" d="M586 359h250v208H586z"/><path fill="#D8D8D8" d="M20 166h104v15H20z"/><path fill="#052962" d="M0 0h856v145H0z"/><path d="m604.008 70.501 4.84-2.517V30h-3.66l-8.941 11.843h-1.01l.57-13.201h38.765l.56 13.201h-1.061l-8.761-11.843h-3.75v37.906l4.87 2.566v1.288h-22.422V70.5Zm35.014-1.678v-42.1l-3.761-1.498v-.788L648.854 22h1.43v19.921l.379-.32c3.011-2.625 7.332-4.313 11.652-4.313 5.951 0 8.581 3.356 8.581 9.606v21.93l3.181 1.726v1.28h-17.772v-1.27l3.189-1.737V46.814c0-3.434-1.499-4.813-4.319-4.813-1.881 0-3.501.59-4.702 1.549v25.323l3.131 1.728v1.218h-17.782V70.61l3.2-1.787Zm45.406-12.931c.369 6.96 3.49 12.343 10.891 12.343 3.58 0 6.12-1.659 8.511-2.917v1.37c-1.85 2.526-6.54 6.071-13.072 6.071-11.471 0-17.332-6.362-17.332-17.386 0-10.774 6.411-17.484 16.772-17.484 9.742 0 14.802 4.863 14.802 17.664v.33h-20.572v.009Zm-.191-1.598 10.092-.619c0-8.617-1.48-14.34-4.441-14.34-3.14 0-5.651 6.64-5.651 14.96ZM540 88.614c0-18.324 12.151-24.844 25.684-24.844 5.74 0 11.161.919 14.19 2.177l.261 12.792h-1.29l-7.942-12.372c-1.359-.58-2.649-.809-5.03-.809-7.19 0-10.871 8.298-10.761 21.908.14 16.277 2.97 23.667 9.571 23.667 1.72 0 3.04-.26 3.961-.659V93.027l-4.361-2.496v-1.458h21.063v1.558l-4.291 2.397v17.205c-3.56 1.389-9.571 2.707-15.912 2.707-15.382 0-25.143-7.12-25.143-24.325Zm44.605-8.547v-1.058l14.162-2.496 1.55.13v27.86c0 3.355 1.62 4.393 4.331 4.393 1.75 0 3.33-.658 4.59-2.166V81.744l-3.88-1.678v-1.098l14.161-2.497 1.42.13v31.935l3.821 1.597v1.019l-13.972 1.718-1.42-.13v-4.194h-.39c-2.591 2.387-6.21 4.454-10.611 4.454-6.791 0-9.902-4.004-9.902-10.076V81.746l-3.86-1.679Zm89.522-3.614 1.16.13v10.314h.319c1.511-7.56 4.851-10.384 8.922-10.384.65 0 1.36.059 1.75.258v10.556c-.65-.19-1.81-.26-2.91-.26-3.23 0-5.611.579-7.701 1.538v20.391l3.22 1.788v1.317h-18.362v-1.308l3.311-1.788v-27.83l-3.881-1.157v-.95l14.172-2.615Z" fill="#fff"/><path d="M709.809 77.595V66.81l-3.882-1.346v-.861L720.224 62l1.36.187v46.321l3.952 1.416v1.197L711.429 113l-1.1-.128v-3.829h-.32c-2.071 2.048-4.922 3.898-9.385 3.898-7.703 0-13.326-5.818-13.326-17.722 0-12.549 6.534-18.713 16.438-18.713 2.832 0 4.973.515 6.073 1.09Zm-.03 29.656V79.565c-.911-.574-1.561-1.287-3.912-1.207-3.822.128-6.182 5.848-6.182 16.02 0 9.154 1.7 14.269 6.792 14.101 1.431-.049 2.591-.554 3.302-1.226v-.002Zm31.464-30.547 1.231.129v32.139l3.231 1.771v1.305h-18.368v-1.296l3.302-1.771V81.908l-3.952-1.534v-1.07l14.556-2.6Zm1.301-8.68c0 3.396-2.911 5.948-6.273 5.948-3.491 0-6.213-2.563-6.213-5.948 0-3.393 2.722-6.016 6.213-6.016 3.362 0 6.273 2.623 6.273 6.017Zm43.23 40.959V81.611l-3.883-1.345V78.94l14.107-2.603 1.421.13v4.096h.39c3.041-2.692 7.574-4.414 12.036-4.414 6.142 0 8.864 2.88 8.864 9.283v23.491l3.291 1.82v1.305h-18.368v-1.296l3.301-1.771V86.075c0-3.522-1.55-4.927-4.462-4.927-1.88 0-3.422.475-4.852 1.523v26.303l3.231 1.771v1.305h-18.378v-1.296l3.302-1.771Zm-20.38-17.199v-4.591c0-6.918-1.52-9.183-5.842-9.183-.511 0-.951.059-1.461.128l-7.693 10.31h-1.081v-9.487c3.302-1.01 7.434-2.198 12.906-2.198 9.404 0 14.876 2.583 14.876 10.371v22.384l3.372.88v.881c-1.33.82-4.001 1.573-6.932 1.573-4.643 0-6.864-1.504-7.884-4.028h-.321c-1.971 2.642-4.762 4.147-9.154 4.147-5.592 0-9.404-3.454-9.404-9.431 0-5.788 3.622-8.925 10.995-10.31l7.623-1.446Zm0 15.467V93.416l-2.35.189c-3.693.317-5.022 2.642-5.022 7.798 0 5.59 1.84 7.045 4.451 7.045 1.461-.01 2.292-.446 2.921-1.197ZM643.629 91.784v-4.591c0-6.918-1.521-9.183-5.852-9.183-.511 0-.952.059-1.462.128l-7.693 10.31h-1.081v-9.487c3.302-1.01 7.434-2.198 12.906-2.198 9.405 0 14.877 2.583 14.877 10.371v22.384l3.371.88v.881c-1.33.82-4.001 1.573-6.932 1.573-4.643 0-6.864-1.504-7.884-4.028h-.32c-1.971 2.642-4.772 4.147-9.154 4.147-5.592 0-9.405-3.454-9.405-9.431 0-5.788 3.622-8.925 10.996-10.31l7.633-1.446Zm0 15.467V93.416l-2.351.189c-3.692.317-5.022 2.642-5.022 7.798 0 5.59 1.84 7.045 4.452 7.045 1.45-.01 2.281-.446 2.921-1.197Z" fill="#fff"/></svg>
